neru-dark-classic/22x22/actions/bank.svg

<svg xmlns="http://www.w3.org/2000/svg" width="22" height="22" version="1.1">
 <defs>
  <style id="current-color-scheme" type="text/css">
   .ColorScheme-Text { color:#d3dae3; } .ColorScheme-Highlight { color:#3fb7ff; }
  </style>
 </defs>
 <path style="fill:currentColor" class="ColorScheme-Text" d="m 11.00781,3.0003904 c -0.166308,0.00989 -0.331632,0.1128756 -0.599609,0.2734375 L 7.4999975,5.0160153 4.6015595,6.7523434 c -0.638198,0.358215 -0.551847,0.1965221 -0.601562,0.8828125 v 1.2578125 c 0,0.059578 0.03804,0.1074219 0.08594,0.1074219 h 0.914063 v 0.4277344 7.1445313 0.427734 h -0.232422 c -0.424987,0 -0.767578,0.378053 -0.767578,0.847656 V 19.00039 H 18 V 17.848046 C 18,17.378443 17.657408,17.00039 17.232422,17.00039 H 17 V 16.572656 9.4281247 9.0003903 h 0.914062 c 0.0479,0 0.08594,-0.047844 0.08594,-0.1074219 V 7.6624997 c -0.0014,-0.7238546 -0.01687,-0.559467 -0.625,-0.9238282 L 14.500003,5.0160153 11.607425,3.2835935 C 11.339762,3.0739699 11.174124,2.990505 11.007815,3.0003904 Z M 6.9999975,10.00039 h 3 v 6 h -3 z m 4.9999995,0 h 3 v 6 h -3 z"/>
</svg>

<svg xmlns="http://www.w3.org/2000/svg" width="22" height="22"><defs><style id="current-color-scheme" type="text/css"></style></defs><path d="M11.008 3c-.166.01-.332.113-.6.274L7.5 5.016 4.602 6.752c-.639.359-.552.197-.602.883v1.258c0 .06.038.107.086.107H5V17h-.232c-.425 0-.768.378-.768.848V19h14v-1.152c0-.47-.343-.848-.768-.848H17V9h.914c.048 0 .086-.047.086-.107v-1.23c-.001-.724-.017-.56-.625-.924L14.5 5.016l-2.893-1.732c-.267-.21-.433-.293-.6-.284zM7 10h3v6H7zm5 0h3v6h-3z" fill="currentColor" color="#d3dae3"/></svg>
